src/telerik-icons/solid/toc-section.svg

<?xml version="1.0" encoding="utf-8"?>
<svg xmlns="http://www.w3.org/2000/svg" width="512" height="512" viewBox="0 0 512 512">
  <path d="M96 32c-17.7 0-32 14.3-32 32v384c0 17.7 14.3 32 32 32h320c17.7 0 32-14.3 32-32V64c0-17.7-14.3-32-32-32H96zm320 416H96V64h320v384zm-32-288H224v-32h160v32zm-64 64h-96v-32h96v32zm0 64h-96v-32h96v32zm64 64H224v-32h160v32z"/>
</svg>

<?xml version="1.0" encoding="utf-8"?>
<!-- Generator: Adobe Illustrator 24.2.0, SVG Export Plug-In . SVG Version: 6.00 Build 0)  -->
<svg xmlns="http://www.w3.org/2000/svg" width="512" height="512" viewBox="0 0 512 512">
<path d="M96,32c-17.7,0-32,14.3-32,32v384c0,17.7,14.3,32,32,32h320c17.7,0,32-14.3,32-32V64c0-17.7-14.3-32-32-32H96z M416,448H96
	V64h320V448z M384,160H224v-32h160V160z M320,224h-96v-32h96V224z M320,288h-96v-32h96V288z M384,352H224v-32h160V352z" />
</svg>
